public/logos/stusds-sky.svg

<svg width="40" height="40" viewBox="0 0 40 40" fill="none" xmlns="http://www.w3.org/2000/svg">
<path d="M19.1611 39.926C29.7122 39.926 38.2656 31.0162 38.2656 20.0255C38.2656 9.03476 29.7122 0.125 19.1611 0.125C8.61001 0.125 0.0566406 9.03476 0.0566406 20.0255C0.0566406 31.0162 8.61001 39.926 19.1611 39.926Z" fill="url(#paint0_radial_2750_11219)"/>
<path d="M11.8496 25.2602H9.13086C9.3528 29.6815 12.9038 33.525 19.2011 33.525C25.4708 33.525 29.4658 29.9416 29.4658 25.3179C29.4658 16.533 16.7322 17.0242 16.7322 11.9382C16.7322 10.5222 17.7586 8.84613 20.1445 8.84613C22.8077 8.84613 25.9425 11.0135 26.1645 13.7877H28.8554C28.578 9.30848 24.3889 6.1875 19.0625 6.1875C13.5418 6.1875 9.38054 9.53966 9.38054 14.2789C9.38054 23.324 22.1142 22.1392 22.1142 27.7165C22.1142 29.4504 21.0877 30.8952 18.5077 30.8952C15.2896 30.8952 12.0438 28.5545 11.8496 25.2602ZM14.1244 12.6028C14.1244 19.4806 26.747 18.1223 26.747 25.4623C26.747 27.6588 25.36 29.5949 23.6954 30.086C24.2779 29.5081 24.7219 28.2367 24.7219 27.0229C24.7219 20.2319 12.0715 21.1567 12.0715 14.1922C12.0715 11.8515 13.5141 9.97313 15.3173 9.39518C14.6238 10.2621 14.1244 11.3891 14.1244 12.6028Z" fill="white"/>
<defs>
<radialGradient id="paint0_radial_2750_11219" cx="0" cy="0" r="1" gradientUnits="userSpaceOnUse" gradientTransform="translate(19.1611 62.1152) rotate(-90) scale(61.9902 59.5106)">
<stop stop-color="#FDC079"/>
<stop offset="1" stop-color="#EC63DA"/>
</radialGradient>
</defs>
</svg>

<svg xmlns="http://www.w3.org/2000/svg" width="40" height="40" fill="none" viewBox="0 0 40 40"><path fill="url(#a)" d="M19.161 39.926c10.551 0 19.105-8.91 19.105-19.9C38.266 9.035 29.712.125 19.16.125S.057 9.035.057 20.025c0 10.991 8.553 19.901 19.104 19.901"/><path fill="#fff" d="M11.85 25.26H9.13c.223 4.421 3.774 8.265 10.071 8.265 6.27 0 10.265-3.583 10.265-8.207 0-8.785-12.734-8.294-12.734-13.38 0-1.416 1.027-3.092 3.413-3.092 2.663 0 5.797 2.168 6.02 4.942h2.69c-.277-4.48-4.466-7.6-9.792-7.6-5.521 0-9.682 3.352-9.682 8.09 0 9.046 12.733 7.861 12.733 13.439 0 1.733-1.026 3.178-3.606 3.178-3.218 0-6.464-2.34-6.658-5.635m2.274-12.657c0 6.878 12.623 5.52 12.623 12.86 0 2.196-1.387 4.132-3.052 4.623.583-.578 1.027-1.85 1.027-3.063 0-6.791-12.65-5.866-12.65-12.83 0-2.341 1.442-4.22 3.245-4.798-.693.867-1.193 1.994-1.193 3.208"/><defs><radialGradient id="a" cx="0" cy="0" r="1" gradientTransform="matrix(0 -61.9902 59.5106 0 19.161 62.115)" gradientUnits="userSpaceOnUse"><stop stop-color="#fdc079"/><stop offset="1" stop-color="#ec63da"/></radialGradient></defs></svg>
